fs/arrow_fit_in_16_regular.svg

<svg viewBox="0 0 16 16" fill="none" xmlns="http://www.w3.org/2000/svg" height="1em" width="1em">
  <path d="M4.85355 5.14645C4.65829 4.95118 4.34171 4.95118 4.14645 5.14645C3.95118 5.34171 3.95118 5.65829 4.14645 5.85355L5.29289 7H1.5C1.22386 7 1 7.22386 1 7.5C1 7.77614 1.22386 8 1.5 8H5.29289L4.14645 9.14645C3.95118 9.34171 3.95118 9.65829 4.14645 9.85355C4.34171 10.0488 4.65829 10.0488 4.85355 9.85355L6.85355 7.85355C7.04882 7.65829 7.04882 7.34171 6.85355 7.14645L4.85355 5.14645ZM11.8536 5.85355C12.0488 5.65829 12.0488 5.34171 11.8536 5.14645C11.6583 4.95118 11.3417 4.95118 11.1464 5.14645L9.14645 7.14645C8.95118 7.34171 8.95118 7.65829 9.14645 7.85355L11.1464 9.85355C11.3417 10.0488 11.6583 10.0488 11.8536 9.85355C12.0488 9.65829 12.0488 9.34171 11.8536 9.14645L10.7071 8H14.5C14.7761 8 15 7.77614 15 7.5C15 7.22386 14.7761 7 14.5 7H10.7071L11.8536 5.85355Z" fill="#212121"/>
</svg>

<svg viewBox="0 0 16 16" fill="none" xmlns="http://www.w3.org/2000/svg" height="1em" width="1em">
  <path d="M4.854 5.146a.5.5 0 1 0-.708.708L5.293 7H1.5a.5.5 0 0 0 0 1h3.793L4.146 9.146a.5.5 0 1 0 .708.708l2-2a.5.5 0 0 0 0-.708l-2-2Zm7 .708a.5.5 0 0 0-.708-.708l-2 2a.5.5 0 0 0 0 .708l2 2a.5.5 0 0 0 .708-.708L10.707 8H14.5a.5.5 0 0 0 0-1h-3.793l1.147-1.146Z" fill="#212121"/>
</svg>
